X: 10508
T: Dooley's Delight
R: reel
M: 4/4
K: Adorian
|:ABcB AGEG|ecdB cBAG|ABcd ea^ga|gede gedB|
ABcB AGEG|ecdB cBAB|cdeg fded|(3cBA BG A3B:|
|:A2cA eage|(3ABA cA GBdg|edeg a^gab|=gfed edcB|
A2cA eage|(3ABA cA GBdg|a^gab =gefd|(3cBA BG A4:|

